icons/grapher.svg

<!--
  - The MIT License (MIT)
  -
  - Copyright (c) 2015-2024 Elior "Mallowigi" Boukhobza
  -
  - Permission is hereby granted, free of charge, to any person obtaining a copy
  - of this software and associated documentation files (the "Software"), to deal
  - in the Software without restriction, including without limitation the rights
  - to use, copy, modify, merge, publish, distribute, sublicense, and/or sell
  - copies of the Software, and to permit persons to whom the Software is
  - furnished to do so, subject to the following conditions:
  -
  - The above copyright notice and this permission notice shall be included in all
  - copies or substantial portions of the Software.
  -
  - THE SOFTWARE IS PROVIDED "AS IS", WITHOUT WARRANTY OF ANY KIND, EXPRESS OR
  - IMPLIED, INCLUDING BUT NOT LIMITED TO THE WARRANTIES OF MERCHANTABILITY,
  - FITNESS FOR A PARTICULAR PURPOSE AND NONINFRINGEMENT. IN NO EVENT SHALL THE
  - AUTHORS OR COPYRIGHT HOLDERS BE LIABLE FOR ANY CLAIM, DAMAGES OR OTHER
  - LIABILITY, WHETHER IN AN ACTION OF CONTRACT, TORT OR OTHERWISE, ARISING FROM,
  - OUT OF OR IN CONNECTION WITH THE SOFTWARE OR THE USE OR OTHER DEALINGS IN THE
  - SOFTWARE.
  -
  -->

<svg version="1.1" xmlns="http://www.w3.org/2000/svg" viewBox="0 0 487 512" width="16px" height="16px">
  <path fill="#fd459c" data-iconColor="Grapher"
        d="M387.2506409,52.3212776l48.6254272,15.8841057v60.835144l-48.6254272-18.0966415V52.3212776z M387.2506409,116.5554123l48.6254272,18.0967026v55.7693787l-48.6254272-19.5123444V116.5554123z M387.2506409,176.5760651l48.6254272,19.5122833v54.9039764l-48.6254272-20.6867828V176.5760651z M387.2506409,236.0210571l48.6254272,20.6869202v59.182373l-48.6254272-24.3724976V236.0210571z M433.4969482,320.5812378c-5.6407471,1.7394104-35.1259766-5.7635193-55.5186768-19.3293152l7.7326355-4.6225281L433.4969482,320.5812378z M373.2778625,297.9348145c-6.4872131-4.8548889-12.1630554-10.2702942-17.167572-16.1421814l24.0256348,12.0423889L373.2778625,297.9348145z M333.6546936,34.8134651l48.3368225,15.7898636v58.3832741l-48.3368225-17.9891663V34.8134651z M333.6546936,96.6088867l48.3368225,17.9892426v54.2006836l-48.3368225-19.3965302V96.6088867z M333.6546936,155.0692749l48.3368225,19.3963928v53.6024933l-48.3368225-20.5639801V155.0692749z M333.6546936,213.2195129l48.3368225,20.5641022v55.0981903l-33.1716614-16.6265564c-6.1181946-8.9066467-11.0446472-18.6142273-15.1651611-28.8353882V213.2195129z M280.6339722,17.4936256l47.7615967,15.6018867v55.9446411l-47.7615967-17.7751389V17.4936256z M280.6339722,76.8764725l47.7615967,17.7751389v52.640274l-22.4130249-8.9938812c-5.7772827-20.6914139-13.2549133-39.781395-25.3485718-55.0990143V76.8764725z M320.9372559,202.0937958c-4.6705017-19.2190857-8.4114685-38.8684998-13.2449036-57.4426422l20.7032166,8.307724v52.3079224L320.9372559,202.0937958z M328.3955688,210.982132v17.9008331c-2.1683044-6.6729736-4.0917664-13.4943237-5.8626709-20.3950043L328.3955688,210.982132z M210.2653046,16.3725281L240.5720978,6.160161v48.4029922c-8.8490448-3.1959915-18.8858948-5.4505768-30.3067932-6.6175117V16.3725281z M261.2186279,429.1053772l-15.9968262,10.0769653l-47.3581543-30.2578735l9.4605408-5.6554871C221.2110138,415.0724182,238.7488708,424.0439148,261.2186279,429.1053772z M173.738327,357.0523071c7.3059082,16.07724,16.7417297,30.5869141,29.4727325,42.5487976l-10.3013458,6.1581726l-49.8795013-31.8687439L173.738327,357.0523071z M137.9776154,370.662323l-44.173027-28.2227783l46.2945175-25.0989685l24.0969543,14.4423523c2.1975708,7.0073853,4.6500854,13.8372498,7.4254456,20.4313965L137.9776154,370.662323z M205.0061646,18.1446609v30.7030945l-45.6574097,16.7554092V33.598896L205.0061646,18.1446609z M161.9668274,324.3157959l-16.4967499-9.8871155l12.2143402-6.6220703C159.003952,313.3793945,160.4206696,318.8914795,161.9668274,324.3157959z M140.2289124,311.2874451l-31.8188553-19.070282l41.7911911-20.7799377c1.9339752,10.4073181,3.9505157,20.8153687,6.2537689,31.0531616L140.2289124,311.2874451z M105.7523041,51.5899277l48.3373108-16.2880402V67.533226l-48.3373108,17.7389297V51.5899277z M105.7523041,140.8565674c6.1485443,6.843689,11.301239,14.604248,15.6925354,23.0848694l-15.6925354,6.3148041V140.8565674z M105.7523041,175.9250946l18.0339203-7.2569885c6.6365814,14.0667114,11.4216766,29.8970184,15.3648071,46.6404877l-33.3987274,14.2313843V175.9250946z M105.7523041,235.2567139l34.5921783-14.7398376c3.2924805,14.7404785,6.0265656,30.1060486,8.8630371,45.5411682l-43.4552155,21.6074524V235.2567139z M134.8579559,314.1993408l-46.119072,25.0036316l-32.746273-20.9220886l46.8265953-23.2837219L134.8579559,314.1993408z M53.9719009,69.0381622l46.5212708-15.6761017v33.8400879l-46.5212708,17.0724182V69.0381622z M53.9719009,112.2634201c8.6283951,1.7528152,16.3800354,4.2901306,23.3504486,7.5321503l-23.3504486,8.5537338V112.2634201z M53.9719009,133.9504852l29.704483-10.8813095c6.2576218,3.5390015,11.8326721,7.6957169,16.8167877,12.3936996v36.909668l-46.5212708,18.72052V133.9504852z M53.9719009,196.7620544l46.5212708-18.7205963v53.7394867l-46.5212708,19.822937V196.7620544z M53.9719009,257.3204956l46.5212708-19.822876v52.7828674l-46.5212708,23.1320496V257.3204956z M5.2591519,85.4527435l43.4536133-14.6424484v59.465477L5.2591519,146.1937103V85.4527435z M5.2591519,151.7949524l43.4536133-15.9179382v57.3324127L5.2591519,210.6954803V151.7949524z M5.2591519,216.3644562l43.4536133-17.4861145v54.9665222L5.2591519,272.3607178V216.3644562z M5.2591519,278.0771484l43.4536133-18.5157471v56.4661255L5.2591519,337.6342163V278.0771484z M50.5001106,321.0119629l32.9552422,21.055542l-40.869175,22.1502075L7.9665928,342.1610413L50.5001106,321.0119629z M88.5210571,345.3040771l44.2005615,28.2402954l-40.4705048,22.3157654L47.6658134,367.454071L88.5210571,345.3040771z M137.774231,376.7726135l50.089798,32.0030518l-38.8627167,23.2409058L97.206398,399.0171814L137.774231,376.7726135z M153.9553833,435.172821l38.8625793-23.2320557l47.4860535,30.3394775L202.4944,466.0978699L153.9553833,435.172821z M246.5738831,494.1816101l-39.1740112-24.958374l37.8026123-23.8132629l38.5722656,24.6443787L246.5738831,494.1816101z M288.6213684,466.9110107l-38.5010986-24.598999l48.020874-30.2501831l39.005188,23.3774109L288.6213684,466.9110107z M342.0598755,432.2525024l-38.9307556-23.3327332l50.3392639-31.7106018l39.7021179,21.8946838L342.0598755,432.2525024z M398.1754761,395.8577576l-39.6231384-21.8511353l46.8005371-29.4814758l40.0881958,20.6777344L398.1754761,395.8577576z M450.7223511,361.7775269l-40.2045898-20.5058899l28.4734192-17.9365234l40.0512695,20.0749817L450.7223511,361.7775269z M481.6973267,338.8572693l-40.5621033-20.3308716v-59.5810242l40.5621033,17.2565308V338.8572693z M481.6973267,270.4861145l-40.5621033-17.2564087v-55.0309601l40.5621033,16.2766113V270.4861145z M481.6973267,208.8086243l-40.5621033-16.2767334v-55.9225006l40.5621033,15.0957489V208.8086243z M481.6973267,146.0934906l-40.5621033-15.0957489V69.9233322l40.5621033,13.2501068V146.0934906z M0,355.1181641L246.6581116,512L487,356.3123779V79.3585129L244.01828,0L0.000016,81.6747894L0,355.1181641z M275.3748474,69.3077316l-29.5435791-10.9950294l-0.0000305-52.187851l29.5436096,9.767086V69.3077316z"/>
</svg>

<svg xmlns="http://www.w3.org/2000/svg" viewBox="0 0 487 512"><path fill="#fd459c" d="m387.25 52.321 48.626 15.884v60.836l-48.625-18.097zm0 64.234 48.626 18.097v55.77l-48.625-19.513zm0 60.021 48.626 19.512v54.904l-48.625-20.686zm0 59.445 48.626 20.687v59.182l-48.625-24.372zm46.247 84.56c-5.64 1.74-35.126-5.763-55.519-19.33l7.733-4.622zm-60.22-22.646a105.8 105.8 0 0 1-17.167-16.142l24.026 12.042zM333.656 34.813l48.337 15.79v58.384l-48.337-17.99zm0 61.796 48.337 17.99v54.2l-48.337-19.397zm0 58.46 48.337 19.397v53.602l-48.337-20.564zm0 58.15 48.337 20.565v55.098l-33.172-16.627c-6.118-8.906-11.045-18.614-15.165-28.835zM280.634 17.495l47.762 15.602V89.04l-47.762-17.775zm0 59.382 47.762 17.776v52.64l-22.413-8.994c-5.778-20.691-13.255-39.781-25.349-55.099zm40.303 125.218c-4.67-19.22-8.411-38.869-13.245-57.443l20.704 8.308v52.308zm7.459 8.888v17.901c-2.169-6.673-4.092-13.494-5.863-20.395zm-118.13-194.61L240.571 6.16v48.403c-8.849-3.196-18.886-5.45-30.307-6.617zm50.953 412.733-15.997 10.077-47.358-30.258 9.46-5.655c13.887 11.803 31.425 20.775 53.895 25.836m-87.48-72.053c7.305 16.078 16.741 30.587 29.472 42.55l-10.301 6.157-49.88-31.868zm-35.761 13.61L93.805 342.44l46.294-25.1 24.097 14.443c2.198 7.007 4.65 13.837 7.426 20.431zm67.028-352.517v30.703L159.35 65.603V33.6zm-43.04 306.17-16.496-9.886 12.214-6.622a378 378 0 0 0 4.283 16.509m-21.737-13.028-31.819-19.07 41.791-20.78c1.934 10.408 3.95 20.816 6.254 31.053zM105.752 51.59l48.338-16.288v32.231l-48.338 17.74zm0 89.267c6.149 6.843 11.302 14.604 15.693 23.084l-15.693 6.315zm0 35.068 18.034-7.257c6.637 14.067 11.422 29.897 15.365 46.64l-33.399 14.232zm0 59.332 34.592-14.74c3.293 14.74 6.027 30.106 8.864 45.541l-43.456 21.607zm29.106 78.942-46.12 25.004-32.745-20.922 46.826-23.284zM53.972 69.04l46.521-15.677v33.84l-46.521 17.073zm0 43.224c8.628 1.753 16.38 4.29 23.35 7.533l-23.35 8.553zm0 21.687 29.704-10.88a86.5 86.5 0 0 1 16.817 12.393v36.91l-46.521 18.72zm0 62.812 46.521-18.72v53.739l-46.521 19.823zm0 60.558 46.521-19.822v52.782l-46.521 23.133zM5.259 85.453 48.713 70.81v59.466L5.259 146.194zm0 66.342 43.454-15.918v57.332L5.259 210.695zm0 64.57 43.454-17.487v54.967L5.259 272.36zm0 61.712 43.454-18.516v56.467L5.259 337.634zM50.5 321.012l32.955 21.056-40.869 22.15-34.62-22.057zm38.021 24.292 44.2 28.24-40.47 22.316-44.585-28.406zm49.253 31.469 50.09 32.003-38.863 23.24-51.795-32.999zm16.181 58.4 38.863-23.232 47.486 30.34-37.81 23.817zm92.619 59.009L207.4 469.223l37.802-23.813 38.573 24.644zm42.047-27.271-38.5-24.599 48.02-30.25 39.005 23.377zm53.439-34.658-38.93-23.333 50.338-31.71 39.703 21.894zm56.115-36.395-39.623-21.851 46.8-29.482 40.09 20.678zm52.547-34.08-40.204-20.506 28.473-17.937 40.051 20.075zm30.975-22.92-40.562-20.332v-59.58l40.562 17.256zm0-68.372-40.562-17.256v-55.031l40.562 16.276zm0-61.677-40.562-16.277v-55.923l40.562 15.096zm0-62.716-40.562-15.095V69.923l40.562 13.25zM0 355.118 246.658 512 487 356.312V79.36L244.018 0 0 81.675zm275.375-285.81L245.83 58.313V6.125l29.544 9.767z" data-iconColor="Grapher"/></svg>
